public/avatar/hat/140.svg

<svg xmlns:xlink="http://www.w3.org/1999/xlink" height="92.9" width="100.7" xmlns="http://www.w3.org/2000/svg"><use height="17.8" transform="translate(21.15 44.05)" width="34.15" xlink:href="#a"/><defs><g id="a" fill-rule="evenodd"><path d="m-17 8.25 3.3-1.2q2.8-.85 3.2-.6.3.2.1.65l-2.25 4.75q-.15.35-.5.25-.9-.1-2.4-.9-1.7-.95-1.9-1.8-.15-.7.45-1.15" fill="#351e02" transform="translate(17.5 5.7)"/><path d="M-13.35 10.85q-.75-.1-1.85-.8-1.15-.8-.55-1.2l3.9-1.15-1.5 3.15" fill="#a14a0d" transform="translate(17.5 5.7)"/><path d="M9.65 4.1q.4-.25 3.2.6 2.6.75 3.3 1.2.6.45.45 1.15-.2.85-1.9 1.8-1.5.8-2.4.9-.4.1-.5-.25L9.55 4.75q-.25-.4.1-.65" fill="#351e02" transform="translate(17.5 5.7)"/><path d="m12.5 8.45-1.45-3.1 3.85 1.2q.55.35-.6 1.1-1.05.7-1.8.8" fill="#a14a0d" transform="translate(17.5 5.7)"/><path d="m6.45-3.95.25.35Q7.4.3 8.2 2.35q7.35 3 7.35 3.35l.3.4v.05l-.35.45L11 8.3Q5.35 10.7-.5 10.7l-10.3-1.2-5.7-.45q-.4.1-.5-.3l-.05-.2.25-.4 7.4-4.8q.6-2.45.8-5.15l.2-.35q6.85-6 14.85-1.8" fill="#351e02" transform="translate(17.5 5.7)"/><path d="M-7.2-1.25Q-1.4-6.4 5.45-2.8 5.9.3 6.65 2.25q2.4 1.1 6.65 3.5L7.2 8.1Q3.9 9.3-.5 9.3l-8.6-1-5.05-.45 6.4-4.8.55-4.3" fill="#f9c00d" transform="translate(17.5 5.7)"/><path d="M-13.75 7.85q1.6-.8 4.2-.9 3.05-.1 4.45 1.15l-4.3.15-4.35-.4M-9.4 6l2.85-.65q2.15-.25 2.7.4l-4.75.45-.8-.2M2.9 3.3l-.6.55-3.8.1Q1 3.1 2.9 3.3" fill="#cf7a00" transform="translate(17.5 5.7)"/><path d="m4.45-3.25 1 .45Q5.9.3 6.65 2.25q2.4 1.1 6.65 3.5L7.2 8.1Q3.9 9.3-.5 9.3l-6.95-.7 1.5-.1q1.1-.05 5-1.3Q.95 6.55 3 6.5q2.35-.15 2.95-.6L.75 4.85l1.7-.25 2.85.15 2.75-.2Q5.4 3.5 4.15 3.4q.65-2.75.3-6.65" fill="#cf7a00" transform="translate(17.5 5.7)"/><path d="m7.65-.1.15.05 1.15 3-.8-.1Q.5 2.1-9.3 3.85l-.75.15.55-2.65.15-.1Q-7.2-.8-1-1.2q6.1-.4 8.65 1.1" fill="#351500" transform="translate(17.5 5.7)"/><path d="m6.9.5.7 1.4q-2.75-.4-8.1-.05-5 .3-7.7.95l.2-1.25Q-6.4.45-.95.1L6.9.5" fill="#50ceff" transform="translate(17.5 5.7)"/><path d="m6.9.5.7 1.4-3.35-.2.2-1.6L6.9.5" fill="#006bbd" transform="translate(17.5 5.7)"/><path d="M-3.15-2.85Q-6.2-1.4-6.9-1.25L-4-3.5q2.05-1 3.65-.5.75-.25 1.45.35l-4.25.8M-6.1 3.8l.45.15q-.55.5-1.7.8l-2.9.65q1.3-1.6 4.15-1.6m-3.4 2.1 1.2.25-2.1.75-2.55.4 1.6-1.1q.8-.5 1.85-.3m9.15-1.1q-.65 1.5-4 .05 1.45-.95 4-.05M-4.7-1.45l1.65-.9 1.95-.15 1.4.35q-4.2 1.5-5 .7m1.45 8.15.95.2-1.9.7q-1.8.35-2.75-.8l3.7-.1" fill="#fff" transform="translate(17.5 5.7)"/><path d="m-3.05.35 2-.25Q-3.2 1.8-4.4 2.2l-3.6.45q-.3-1.1.3-1.45l1.6-.35 3.05-.5" fill="#ccf0ff" transform="translate(17.5 5.7)"/></g></defs></svg>

<?xml version="1.0" encoding="UTF-8" standalone="no"?>
<svg xmlns:xlink="http://www.w3.org/1999/xlink" height="92.9px" width="100.7px" xmlns="http://www.w3.org/2000/svg">
  <g transform="matrix(1.0, 0.0, 0.0, 1.0, 38.65, 49.75)">
    <use height="17.8" transform="matrix(1.0, 0.0, 0.0, 1.0, -17.5, -5.7)" width="34.15" xlink:href="#shape0"/>
  </g>
  <defs>
    <g id="shape0" transform="matrix(1.0, 0.0, 0.0, 1.0, 17.5, 5.7)">
      <path d="M-17.0 8.25 L-13.7 7.05 Q-10.9 6.2 -10.5 6.45 -10.2 6.65 -10.4 7.1 L-12.65 11.85 Q-12.8 12.2 -13.15 12.1 -14.05 12.0 -15.55 11.2 -17.25 10.25 -17.45 9.4 -17.6 8.7 -17.0 8.25" fill="#351e02" fill-rule="evenodd" stroke="none"/>
      <path d="M-13.35 10.85 Q-14.1 10.75 -15.2 10.05 -16.35 9.25 -15.75 8.85 L-11.85 7.7 -13.35 10.85" fill="#a14a0d" fill-rule="evenodd" stroke="none"/>
      <path d="M9.65 4.1 Q10.05 3.85 12.85 4.7 15.45 5.45 16.15 5.9 16.75 6.35 16.6 7.05 16.4 7.9 14.7 8.85 13.2 9.65 12.3 9.75 11.9 9.85 11.8 9.5 L9.55 4.75 Q9.3 4.35 9.65 4.1" fill="#351e02" fill-rule="evenodd" stroke="none"/>
      <path d="M12.5 8.45 L11.05 5.35 14.9 6.55 Q15.45 6.9 14.3 7.65 13.25 8.35 12.5 8.45" fill="#a14a0d" fill-rule="evenodd" stroke="none"/>
      <path d="M6.45 -3.95 L6.7 -3.6 Q7.4 0.3 8.2 2.35 15.55 5.35 15.55 5.7 L15.85 6.1 15.85 6.15 15.5 6.6 11.0 8.3 Q5.35 10.7 -0.5 10.7 L-10.8 9.5 -16.5 9.05 Q-16.9 9.15 -17.0 8.75 L-17.05 8.55 -16.8 8.15 -9.4 3.35 Q-8.8 0.9 -8.6 -1.8 L-8.4 -2.15 Q-1.55 -8.15 6.45 -3.95" fill="#351e02" fill-rule="evenodd" stroke="none"/>
      <path d="M-7.2 -1.25 Q-1.4 -6.4 5.45 -2.8 5.9 0.3 6.65 2.25 9.05 3.35 13.3 5.75 L7.2 8.1 Q3.9 9.3 -0.5 9.3 L-9.1 8.3 -14.15 7.85 -7.75 3.05 -7.2 -1.25" fill="#f9c00d" fill-rule="evenodd" stroke="none"/>
      <path d="M-13.75 7.85 Q-12.15 7.05 -9.55 6.95 -6.5 6.85 -5.1 8.1 L-9.4 8.25 -13.75 7.85" fill="#cf7a00" fill-rule="evenodd" stroke="none"/>
      <path d="M-9.4 6.0 L-6.55 5.35 Q-4.4 5.1 -3.85 5.75 L-8.6 6.2 -9.4 6.0" fill="#cf7a00" fill-rule="evenodd" stroke="none"/>
      <path d="M2.9 3.3 L2.3 3.85 -1.5 3.95 Q1.0 3.1 2.9 3.3" fill="#cf7a00" fill-rule="evenodd" stroke="none"/>
      <path d="M4.45 -3.25 L5.45 -2.8 Q5.9 0.3 6.65 2.25 9.05 3.35 13.3 5.75 L7.2 8.1 Q3.9 9.3 -0.5 9.3 L-7.45 8.6 -5.95 8.5 Q-4.85 8.45 -0.95 7.2 0.95 6.55 3.0 6.5 5.35 6.35 5.95 5.9 L0.75 4.85 2.45 4.6 5.3 4.75 8.05 4.55 Q5.4 3.5 4.15 3.4 4.8 0.65 4.45 -3.25" fill="#cf7a00" fill-rule="evenodd" stroke="none"/>
      <path d="M7.65 -0.1 L7.8 -0.05 8.95 2.95 8.15 2.85 Q0.5 2.1 -9.3 3.85 L-10.05 4.0 -9.5 1.35 -9.35 1.25 Q-7.2 -0.8 -1.0 -1.2 5.1 -1.6 7.65 -0.1" fill="#351500" fill-rule="evenodd" stroke="none"/>
      <path d="M6.9 0.5 L7.6 1.9 Q4.85 1.5 -0.5 1.85 -5.5 2.15 -8.2 2.8 L-8.0 1.55 Q-6.4 0.45 -0.95 0.1 L6.9 0.5" fill="#50ceff" fill-rule="evenodd" stroke="none"/>
      <path d="M6.9 0.5 L7.6 1.9 4.25 1.7 4.45 0.1 6.9 0.5" fill="#006bbd" fill-rule="evenodd" stroke="none"/>
      <path d="M-3.15 -2.85 Q-6.2 -1.4 -6.9 -1.25 L-4.0 -3.5 Q-1.95 -4.5 -0.35 -4.0 0.4 -4.25 1.1 -3.65 L-3.15 -2.85" fill="#ffffff" fill-rule="evenodd" stroke="none"/>
      <path d="M-6.1 3.8 L-5.65 3.95 Q-6.2 4.45 -7.35 4.75 L-10.25 5.4 Q-8.95 3.8 -6.1 3.8" fill="#ffffff" fill-rule="evenodd" stroke="none"/>
      <path d="M-9.5 5.9 L-8.3 6.15 -10.4 6.9 -12.95 7.3 -11.35 6.2 Q-10.55 5.7 -9.5 5.9" fill="#ffffff" fill-rule="evenodd" stroke="none"/>
      <path d="M-0.35 4.8 Q-1.0 6.3 -4.35 4.85 -2.9 3.9 -0.35 4.8" fill="#ffffff" fill-rule="evenodd" stroke="none"/>
      <path d="M-4.7 -1.45 L-3.05 -2.35 -1.1 -2.5 0.3 -2.15 Q-3.9 -0.65 -4.7 -1.45" fill="#ffffff" fill-rule="evenodd" stroke="none"/>
      <path d="M-3.25 6.7 L-2.3 6.9 -4.2 7.6 Q-6.0 7.95 -6.95 6.8 L-3.25 6.7" fill="#ffffff" fill-rule="evenodd" stroke="none"/>
      <path d="M-3.05 0.35 L-1.05 0.1 Q-3.2 1.8 -4.4 2.2 L-8.0 2.65 Q-8.3 1.55 -7.7 1.2 L-6.1 0.85 -3.05 0.35" fill="#ccf0ff" fill-rule="evenodd" stroke="none"/>
    </g>
  </defs>
</svg>
